X:3810
L:1/8
M:9/8
K:Emin
 BcA BEE BEE | BcA BEE FED | BcA BEE BEE | FAA ABG FED | BcA BEE BEE | BcA BEE FED | BcA BEE BEE | 
 FAA ABG FED || G2 A BcA BcA | G2 A Bcd ecA | G2 A BcA Bcd | ecA A2 G FED | G2 A BcA BcA | 
 G2 A Bcd ecA | G2 A BcA Bcd | ecA A2 G FED ||

